polaris-icons/icons/newicons/AutomationMajor.svg

<svg width="20" height="20" viewBox="0 0 20 20" fill="none" xmlns="http://www.w3.org/2000/svg">
<path d="M7.57619 3.75C7.57619 2.7835 8.35969 2 9.32619 2H10.6723C11.6388 2 12.4223 2.7835 12.4223 3.75V4.49257C12.4223 4.5804 12.4847 4.7216 12.6675 4.81708C12.8319 4.90299 12.9917 4.99658 13.1463 5.09734C13.3205 5.21094 13.4759 5.19483 13.5527 5.15047L14.2004 4.77655C15.0374 4.2933 16.1077 4.58009 16.5909 5.4171L17.264 6.5829C17.7472 7.41991 17.4605 8.4902 16.6234 8.97345L15.9244 9.37705C15.8489 9.42063 15.759 9.54295 15.7655 9.74505C15.7677 9.81254 15.7686 9.94423 15.7686 10C15.7686 10.4142 15.4328 10.75 15.0186 10.75C14.6043 10.75 14.2686 10.4142 14.2686 10C14.2686 9.94585 14.2676 9.83483 14.2663 9.79325C14.2459 9.15799 14.5243 8.45332 15.1744 8.07801L15.8734 7.67441C15.993 7.60537 16.034 7.45248 15.965 7.3329L15.2919 6.1671C15.2228 6.04752 15.0699 6.00656 14.9504 6.07559L14.3027 6.44951C13.6376 6.83355 12.8706 6.70822 12.3271 6.35393C12.2127 6.27933 12.0945 6.2101 11.9729 6.14658C11.4044 5.84956 10.9223 5.25239 10.9223 4.49257V3.75C10.9223 3.61193 10.8104 3.5 10.6723 3.5H9.32619C9.18812 3.5 9.07619 3.61193 9.07619 3.75V4.49264C9.07619 5.25244 8.59416 5.8496 8.02565 6.14663C7.90408 6.21014 7.7859 6.27937 7.67148 6.35396C7.12799 6.70827 6.36104 6.8336 5.69586 6.44956L5.04812 6.07559C4.92855 6.00656 4.77565 6.04753 4.70662 6.1671L4.03354 7.3329C3.96451 7.45247 4.00547 7.60537 4.12505 7.67441L4.82427 8.0781C5.47431 8.45341 5.75276 9.15806 5.73235 9.79332C5.73085 9.8398 5.7301 9.8865 5.7301 9.93341C5.7301 10.0102 5.73212 10.0865 5.7361 10.1621C5.77017 10.8093 5.49481 11.5348 4.8306 11.9182L4.12506 12.3256C4.00548 12.3946 3.96451 12.5475 4.03355 12.6671L4.70663 13.8329C4.77566 13.9525 4.92856 13.9934 5.04813 13.9244L5.80455 13.4877C6.45576 13.1117 7.20625 13.2242 7.74619 13.5605C7.83715 13.6171 7.93036 13.6704 8.02565 13.7202C8.59416 14.0172 9.07619 14.6144 9.07619 15.3742V16.25C9.07619 16.3881 9.18812 16.5 9.32619 16.5H9.99926C10.4135 16.5 10.7493 16.8358 10.7493 17.25C10.7493 17.6642 10.4135 18 9.99926 18H9.32619C8.35969 18 7.57619 17.2165 7.57619 16.25V15.3742C7.57619 15.2863 7.51381 15.1452 7.33105 15.0497C7.20215 14.9823 7.07615 14.9103 6.95326 14.8337C6.781 14.7265 6.62994 14.7432 6.55455 14.7867L5.79813 15.2234C4.96112 15.7067 3.89084 15.4199 3.40759 14.5829L2.73451 13.4171C2.25126 12.5801 2.53804 11.5098 3.37506 11.0266L4.0806 10.6192C4.1575 10.5748 4.24909 10.4484 4.23818 10.241C4.23281 10.1391 4.2301 10.0365 4.2301 9.93341C4.2301 9.87044 4.23111 9.80767 4.23312 9.74513C4.23962 9.54304 4.14976 9.42073 4.07427 9.37714L3.37505 8.97345C2.53804 8.4902 2.25125 7.41991 2.7345 6.5829L3.40758 5.4171C3.89083 4.58009 4.96111 4.2933 5.79812 4.77655L6.44586 5.15052C6.52269 5.19488 6.67806 5.21099 6.85232 5.09739C7.00688 4.99663 7.16662 4.90305 7.33105 4.81714C7.51381 4.72166 7.57619 4.58046 7.57619 4.49264V3.75Z" fill="black"/>
<path fill-rule="evenodd" clip-rule="evenodd" d="M10 13C11.6569 13 13 11.6569 13 10C13 8.34315 11.6569 7 10 7C8.34315 7 7 8.34315 7 10C7 11.6569 8.34315 13 10 13ZM10 11.5C10.8284 11.5 11.5 10.8284 11.5 10C11.5 9.17157 10.8284 8.5 10 8.5C9.17157 8.5 8.5 9.17157 8.5 10C8.5 10.8284 9.17157 11.5 10 11.5Z" fill="black"/>
<path d="M14.8721 13.3488C14.64 13.2162 14.3548 13.2171 14.1236 13.3513C13.8923 13.4855 13.75 13.7326 13.75 14V18C13.75 18.2674 13.8923 18.5145 14.1236 18.6487C14.3548 18.7829 14.64 18.7838 14.8721 18.6512L18.3721 16.6512C18.6058 16.5177 18.75 16.2691 18.75 16C18.75 15.7309 18.6058 15.4823 18.3721 15.3488L14.8721 13.3488Z" fill="black"/>
</svg>

<svg viewBox="0 0 20 20" fill="none" xmlns="http://www.w3.org/2000/svg"><path d="M7.576 3.75c0-.966.784-1.75 1.75-1.75h1.346c.967 0 1.75.784 1.75 1.75v.743c0 .087.063.229.245.324.165.086.325.18.48.28.173.114.329.098.406.053l.647-.373a1.75 1.75 0 0 1 2.39.64l.674 1.166a1.75 1.75 0 0 1-.64 2.39l-.7.404c-.075.044-.165.166-.159.368.003.068.004.2.004.255a.75.75 0 0 1-1.5 0c0-.054-.001-.165-.003-.207-.02-.635.258-1.34.908-1.715l.7-.404a.25.25 0 0 0 .091-.341l-.673-1.166a.25.25 0 0 0-.342-.091l-.647.374c-.665.384-1.432.258-1.976-.096a4.256 4.256 0 0 0-.354-.207c-.569-.297-1.05-.895-1.05-1.654v-.743a.25.25 0 0 0-.25-.25h-1.347a.25.25 0 0 0-.25.25v.743c0 .76-.482 1.357-1.05 1.654-.122.063-.24.132-.355.207-.543.354-1.31.48-1.975.096l-.648-.374a.25.25 0 0 0-.341.091l-.673 1.166a.25.25 0 0 0 .091.341l.7.404c.65.375.928 1.08.907 1.715a4.343 4.343 0 0 0 .004.37c.034.646-.241 1.372-.905 1.755l-.706.408a.25.25 0 0 0-.091.341l.673 1.166a.25.25 0 0 0 .341.091l.757-.436c.65-.376 1.401-.264 1.941.072.091.057.184.11.28.16.568.297 1.05.894 1.05 1.654v.876c0 .138.112.25.25.25h.673a.75.75 0 1 1 0 1.5h-.673a1.75 1.75 0 0 1-1.75-1.75v-.876c0-.088-.062-.229-.245-.324a5.757 5.757 0 0 1-.378-.216c-.172-.107-.323-.09-.398-.047l-.757.436a1.75 1.75 0 0 1-2.39-.64l-.673-1.166a1.75 1.75 0 0 1 .64-2.39l.706-.408c.076-.044.168-.17.157-.378a5.846 5.846 0 0 1-.005-.496c.007-.202-.083-.324-.159-.368l-.699-.404a1.75 1.75 0 0 1-.64-2.39l.673-1.166a1.75 1.75 0 0 1 2.39-.64l.648.374c.077.044.232.06.406-.054.155-.1.315-.194.479-.28.183-.095.245-.237.245-.324v-.743Z" fill="#000"/><path fill-rule="evenodd" clip-rule="evenodd" d="M10 13a3 3 0 1 0 0-6 3 3 0 0 0 0 6Zm0-1.5a1.5 1.5 0 1 0 0-3 1.5 1.5 0 0 0 0 3Z" fill="#000"/><path d="M14.872 13.349a.75.75 0 0 0-1.122.651v4a.75.75 0 0 0 1.122.651l3.5-2a.75.75 0 0 0 0-1.302l-3.5-2Z" fill="#000"/></svg>
